symbols/web/cases/materialsymbolssharp/cases_wght100_24px.svg

<svg xmlns="http://www.w3.org/2000/svg" height="24" width="24"><path d="M2.3 19.65V9.55H3v9.4h15.05v.7Zm2.7-2.7V6.55h5.4V3.6h5.9v2.95h5.4v10.4Zm6.1-10.4h4.5V4.3h-4.5Zm-5.4 9.7H21v-9H5.7Zm0-9v9Z"/></svg>

<svg xmlns="http://www.w3.org/2000/svg" height="24" width="24"><path d="M2.3 19.65V9.55H3V18.95H18.05V19.65ZM5 16.95V6.55H10.4V3.6H16.3V6.55H21.7V16.95ZM11.1 6.55H15.6V4.3H11.1ZM5.7 16.25H21V7.25H5.7ZM5.7 7.25V16.25Z"/></svg>
